assets/images/icons/key.svg

<svg version="1.1" width="24" height="24" viewBox="0 0 24 24" fill="none" xmlns="http://www.w3.org/2000/svg">
<path d="M15.5003 7.5L19.0003 4M21.0003 2L19.0003 4L21.0003 2ZM11.3903 11.61C11.9066 12.1195 12.3171 12.726 12.598 13.3948C12.879 14.0635 13.0249 14.7813 13.0273 15.5066C13.0297 16.232 12.8887 16.9507 12.6122 17.6213C12.3357 18.2919 11.9293 18.9012 11.4164 19.4141C10.9035 19.9271 10.2942 20.3334 9.62358 20.6099C8.95296 20.8864 8.23427 21.0275 7.50891 21.025C6.78354 21.0226 6.06582 20.8767 5.39707 20.5958C4.72831 20.3148 4.12174 19.9043 3.61227 19.388C2.6104 18.3507 2.05604 16.9614 2.06857 15.5193C2.0811 14.0772 2.65953 12.6977 3.67927 11.678C4.69902 10.6583 6.07849 10.0798 7.52057 10.0673C8.96265 10.0548 10.352 10.6091 11.3893 11.611L11.3903 11.61ZM11.3903 11.61L15.5003 7.5L11.3903 11.61ZM15.5003 7.5L18.5003 10.5L22.0003 7L19.0003 4L15.5003 7.5Z" stroke="#3C4B5D" stroke-width="2" stroke-linecap="round" stroke-linejoin="round"/>
</svg>

<svg width="24" height="24" xmlns="http://www.w3.org/2000/svg" fill="none" viewBox="0 0 24 24"><path stroke="#3C4B5D" stroke-linecap="round" stroke-linejoin="round" stroke-width="2" d="M15.5 7.5 19 4m2-2-2 2 2-2Zm-9.6 9.6a5.5 5.5 0 1 1-7.8 7.8 5.5 5.5 0 0 1 7.8-7.8h0Zm0 0 4.1-4.1-4.1 4.1Zm4.1-4.1 3 3L22 7l-3-3-3.5 3.5Z"/></svg>
